!!!COM: Palestrina, Giovanni Perluigi da
!!!OPR: Missa Quem dicunt homines
!!!OMD: Credo
!!!OTL: Et iterum
**kern	**kern	**kern	**kern
*Ibass	*Itenor	*Icalto	*Icant
!Bassus	!Tenor	!Altus	!Cantus
*clefF4	*clefGv2	*clefG2	*clefG2
*k[]	*k[]	*k[]	*k[]
*C:ion	*C:ion	*C:ion	*C:ion
*M4/2	*M4/2	*M4/2	*M4/2
=141	=141	=141	=141
1r	0r	1d	0r
1G	.	[1g	.
=142	=142	=142	=142
1.c	0r	2g]	1g
.	.	2g	.
.	.	4e	[1cc
.	.	4f	.
2c	.	4g	.
.	.	4e	.
=143	=143	=143	=143
2A	0r	4f	2cc]
.	.	4e	.
2A	.	4e	2cc
.	.	8d	.
.	.	8c	.
2G	.	1d	2b
2F#	.	.	2a
=144	=144	=144	=144
2.G	2r	1d	2b
.	2G	.	2b
4F	.	.	.
2E	[1c	2e	2g
2F	.	4d	[2a
.	.	4c	.
=145	=145	=145	=145
1C	2c]	1e	2a]
.	2c	.	1g
2r	2B	1d	.
2D	2A	.	2f#
=146	=146	=146	=146
1.G	2B	0d	4g
.	.	.	4a
.	2B	.	4b
.	.	.	4cc
.	4G	.	2dd
.	4A	.	.
2G	4B	.	2d
.	4c	.	.
=147	=147	=147	=147
2F	2d	1r	2f
2E	4c	.	2g
.	4B	.	.
[1F	2A	1c	[1a
.	4F	.	.
.	4G	.	.
=148	=148	=148	=148
1F]	4A	1.f	1a]
.	4B	.	.
.	2.c	.	.
1D	.	.	1r
.	8B	.	.
.	8A	.	.
.	2B	2f	.
=149	=149	=149	=149
2C	2c	2e	1r
2G	2B	2d	.
[1c	2c	2e	1g
.	2e	4c	.
.	.	4d	.
=150	=150	=150	=150
2c]	2.e	4e	1.cc
.	.	4f	.
2c	.	2.g	.
.	4d	.	.
1A	1c	.	.
.	.	8f#	.
.	.	8e	.
.	.	2f#	2cc
=151	=151	=151	=151
2G	1d	2g	2b
2F#	.	2d	2a
1G	1d	2B	1b
.	.	2G	.
=152	=152	=152	=152
1E	2r	2B	1g
.	2G	2B	.
2C	2G	1c	1e
2C	2A	.	.
=153	=153	=153	=153
2D	2.B	1r	0r
1E	.	.	.
.	4A	.	.
.	2G	2r	.
4D	[2c	2c	.
4C	.	.	.
=154	=154	=154	=154
2G	2c]	2d	1g
2G	2B	2d	.
1C	2.c	2.e	2g
.	.	.	2a
.	8B	8d	.
.	8A	8c	.
=155	=155	=155	=155
0r	4G	2.g	2.b
.	4A	.	.
.	2B	.	.
.	.	4f	4a
.	1c	4e	2g
.	.	4d	.
.	.	4e	[2cc
.	.	4c	.
=156	=156	=156	=156
1r	1G	2d	2cc]
.	.	2d	2b
2r	1r	1c	2a
[2C	.	.	4g
.	.	.	4f
=157	=157	=157	=157
4C]	2.G	2r	1e
4D	.	.	.
4E	.	2.G	.
4F	4A	.	.
2G	4B	.	1d
.	4c	4A	.
2G	2d	4B	.
.	.	4c	.
=158	=158	=158	=158
1G	2B	2d	0r
.	1c	2e	.
1G	.	1d	.
.	2B	.	.
=159	=159	=159	=159
2E	1c	2e	2r
1F	.	2.A	2.c
.	1r	.	.
.	.	4B	4d
4E	.	4c	4e
4D	.	4d	4f
=160	=160	=160	=160
2C	1c	1.e	2g
4C	.	.	2g
4D	.	.	.
4E	2c	.	1g
4F	.	.	.
4G	4B	4d	.
4A	4A	4c	.
=161	=161	=161	=161
2B	2G	2d	1g
1c	2C	2e	.
.	1G	1d	1g
2B	.	.	.
=162	=162	=162	=162
1c	2r	2.g	2.e
.	2.c	.	.
.	.	4f	4d
1r	.	4e	2e
.	4B	4d	.
.	[2A	[2c	[2f
=163	=163	=163	=163
0r	4A]	4c]	4f]
.	4G	4B	4e
.	4G	4B	1e
.	8F	8A	.
.	8E	8G	.
.	2F	2A	.
.	2G	2B	2d
=164	=164	=164	=164
2r	1C	2c	2.e
1c	.	1e	.
.	.	.	4f
.	1r	.	1g
2c	.	2e	.
=165	=165	=165	=165
2A	1r	2c	2r
2B	.	2d	1g
1c	2r	2.e	.
.	2c	.	2g
.	.	4f	.
=166	=166	=166	=166
0r	2c	2g	2e
.	2A	2c	2f
.	2B	2d	1g
.	[2c	[2e	.
=167	=167	=167	=167
1r	2c]	2e]	2.g
.	4B	4d	.
.	4A	4c	4a
2r	4G	2.d	4b
.	4A	.	4cc
[2G	4B	.	[2dd
.	4c	4c	.
=168	=168	=168	=168
2G]	2d	4B	4dd]
.	.	4G	4cc
2G	2.e	1g	4b
.	.	.	4a
2E	.	.	2g
.	4d	.	.
2F	[2c	4f	2a
.	.	4e	.
=169	=169	=169	=169
1G	2c]	2d	2g
.	2B	2d	2g
2r	1c	[1e	[1g
2C	.	.	.
=170	=170	=170	=170
2.E	2r	1e]	1g]
.	2G	.	.
4F	.	.	.
2G	2B	1r	1r
2A	2c	.	.
=171	=171	=171	=171
2B	2d	1r	2r
2.c	2.e	.	2c
.	.	2r	2.e
4B	4d	.	.
2A	2c	2c	.
.	.	.	4f
=172	=172	=172	=172
2G	2B	2e	2g
2F	1c	2f	1a
1G	.	2d	.
.	2B	[2e	[2g
=173	=173	=173	=173
1A	1c	4e]	2g]
.	.	4d	.
.	.	2c	2f#
1G	2r	2B	[1g
.	[2B	[2d	.
=174	=174	=174	=174
2r	2B]	2d]	1g_
1G	2B	2d	.
.	2B	2d	1g_
2G	2B	2d	.
=175	=175	=175	=175
2G	2.B	2.d	1g]
2G	.	.	.
.	4c	4c	.
2.G	1d	1B	1r
4F	.	.	.
=176	=176	=176	=176
2E	2e	2c	0r
2F	2A	2d	.
2G	2B	2.e	.
2A	[2c	.	.
.	.	8d	.
.	.	8c	.
=177	=177	=177	=177
1G	2c]	1d	2r
.	2B	.	1g
1r	2r	2e	.
.	[2c	[2e	2g
=178	=178	=178	=178
0r	2c]	2e]	1g
.	2B	2d	.
.	2c	2e	2.g
.	2G	2B	.
.	.	.	4f
=179	=179	=179	=179
0r	1A	1c	2e
.	.	.	2f
.	2G	2e	2g
.	2F	2f	2a
=180	=180	=180	=180
2r	2c	2e	2g
1G	1d	1g	1b
2G	2d	2g	2b
=181	=181	=181	=181
2.G	1d	1.g	1b
4F	.	.	.
2E	2e	.	2cc
2F	[2c	2f	[2a
=182	=182	=182	=182
1G	4c]	2d	4a]
.	8B	.	4g
.	8A	.	.
.	2B	1e	1g
1A	1c	.	.
.	.	4d	2f#
.	.	4c	.
=183	=183	=183	=183
1G	1B	1d	1g
2r	2r	2r	2r
2G	2d	2g	2b
=184	=184	=184	=184
2G	2d	2g	2b
2G	2d	2g	2b
2.G	1d	[1g	1b
4F	.	.	.
=185	=185	=185	=185
2E	2e	2g]	2cc
2F	2.c	2f	2.a
1G	.	2d	.
.	8B	.	4g
.	8A	.	.
.	2B	[2e	[2g
=186	=186	=186	=186
1A	1c	2e]	2g]
.	.	4d	2f#
.	.	4c	.
2G	2B	2d	1g
[2c	2c	[2e	.
=187	=187	=187	=187
2c]	1G	2e]	2r
2B	.	2d	1g
2A	2r	2c	.
2A	[2c	2c	2f
=188	=188	=188	=188
1G	2c]	1g	2e
.	2B	.	2d
4C	2A	1r	2e
4D	.	.	.
4E	2G	.	[2g
4F	.	.	.
=189	=189	=189	=189
4G	2B	0r	2g]
4E	.	.	.
1A	1c	.	2.f
.	.	.	4e
2G	2B	.	[2e
=190	=190	=190	=190
1F	1A	1r	2e]
.	.	.	2d
2E	2B	2r	1e
2C	2e	2g	.
=191	=191	=191	=191
2C	2e	2g	0r
2D	2d	2f	.
2E	1c	1e	.
2C	.	.	.
=192	=192	=192	=192
1G	4B	2d	1r
.	4c	.	.
.	4d	2.g	.
.	4B	.	.
1C	2.c	.	2r
.	.	4f	.
.	.	4e	2cc
.	4B	4d	.
=193	=193	=193	=193
0r	2A	2c	2cc
.	2G	1e	2b
.	2F	.	2.a
.	2F	2d	.
.	.	.	4a
=194	=194	=194	=194
2r	2.E	1e	2.g
2c	.	.	.
.	4F	.	4f
2c	1G	2r	2e
2B	.	2g	2d
=195	=195	=195	=195
2.A	2r	2g	2e
.	2c	2f	2c
4A	.	.	.
1G	2c	2e	1g
.	2B	2d	.
=196	=196	=196	=196
2.c	2.A	2e	0r
.	.	1e	.
4B	4B	.	.
4A	[1c	.	.
4G	.	.	.
[2A	.	[2f	.
=197	=197	=197	=197
4A]	2c]	4f]	2r
4E	.	4e	.
2G	2B	1e	2e
2F	2A	.	2a
2F	2A	2d	2a
=198	=198	=198	=198
1E	4B	2e	2.g
.	4G	.	.
.	1c	2e	.
.	.	.	4f
2r	.	2g	1e
2E	4B	2g	.
.	4A	.	.
=199	=199	=199	=199
2G	1B	1g	2r
2G	.	.	2b
1G	2r	1d	2dd
.	2B	.	2dd
=200	=200	=200	=200
1D	2d	2f	1dd
.	2d	2f	.
2F	1c	1f	1a
2F	.	.	.
=201	=201	=201	=201
1F	1A	2.c	2cc
.	.	.	2cc
.	.	4d	.
1C	2c	4e	1cc
.	.	4f	.
.	2c	[2e	.
=202	=202	=202	=202
2r	1c	2e]	0g
1c	.	4d	.
.	.	4c	.
.	2G	2d	.
2B	2d	[2g	.
=203	=203	=203	=203
2.c	2e	2g]	2r
.	2e	2g	1cc
4B	.	.	.
2A	1c	2f	.
2A	.	2e	2cc
=204	=204	=204	=204
2G	1d	2g	2b
2D	.	2f	2a
2.A	2r	2e	2.cc
.	[2c	4A	.
4G	.	4B	4b
=205	=205	=205	=205
2F	2c]	4c	2a
.	.	4d	.
2E	2c	4e	2.g
.	.	4c	.
1D	2B	1d	.
.	.	.	4f
.	2A	.	4f
.	.	.	8e
.	.	.	8d
=206	=206	=206	=206
2.C	2.c	1g	2e
.	.	.	2cc
4D	8B	.	.
.	8A	.	.
2E	2G	2g	2b
2F	2A	4f	[2a
.	.	4e	.
=207	=207	=207	=207
2G	2B	2d	4a]
.	.	.	4g
2C	2c	2e	1g
1D	1A	1d	.
.	.	.	2f#
=208	=208	=208	=208
0G	2G	2r	[0g
.	1B	1d	.
.	2B	2d	.
=209	=209	=209	=209
2r	2c	2e	1g]
1G	4B	2d	.
.	4A	.	.
.	4B	1g	1r
.	4c	.	.
2G	4d	.	.
.	4B	.	.
=210	=210	=210	=210
2A	2c	2f	1r
2G	2d	2.g	.
1c	1e	.	2r
.	.	4f	.
.	.	2e	[2g
=211	=211	=211	=211
2B	1r	2d	2g]
1c	.	4e	2g
.	.	4d	.
.	2r	4e	2a
.	.	4f	.
2c	[2c	[2g	2g
=212	=212	=212	=212
1A	2c]	2g]	1cc
.	2c	2f#	.
2G	2d	4g	2b
.	.	4f	.
2C	2c	4e	4cc
.	.	4d	4b
=213	=213	=213	=213
1F	2r	4c	4a
.	.	4B	4g
.	2c	2A	4f
.	.	.	4e
2G	2B	2r	2d
4C	[2c	[2e	2g
4D	.	.	.
=214	=214	=214	=214
4E	2c]	2e]	2g
4F	.	.	.
2G	2B	2d	1g
[1D	2.A	[1d	.
.	.	.	[2f
.	4A	.	.
=215	=215	=215	=215
2D]	2A	2d]	2f]
2E	2G	1c	1e
1F	1A	.	.
.	.	4B	2d
.	.	4A	.
=216	=216	=216	=216
1E	2B	2G	0e
.	2B	2G	.
1r	1A	1c	.
=217	=217	=217	=217
1E	2G	2.B	2r
.	2G	.	2e
.	.	4c	.
1D	2A	1d	1f
.	2B	.	.
=218	=218	=218	=218
1C	4c	2r	1e
.	4B	.	.
.	4c	2G	.
.	4d	.	.
1r	2e	2g	1r
.	[2d	2f	.
=219	=219	=219	=219
2r	4d]	2e	1g
.	4c	.	.
2E	1c	2e	.
2F	.	1d	2a
2G	2B	.	2b
=220	=220	=220	=220
4A	2e	2r	4cc
4G	.	.	4b
4A	1c	2.a	4cc
4B	.	.	4dd
2c	.	.	2ee
.	.	4g	.
2B	2d	[2g	[2dd
=221	=221	=221	=221
1A	2e	2g]	4dd]
.	.	.	4cc
.	4d	2f#	1cc
.	4c	.	.
1G	1d	1g	.
.	.	.	2b
=222	=222	=222	=222
1C	1c	2r	2cc
.	.	2e	2g
1r	2r	1f	1a
.	2A	.	.
=223	=223	=223	=223
1r	1c	1.e	1.g
1E	2B	.	.
.	2G	2c	2e
=224	=224	=224	=224
1D	2A	1d	1f
.	2B	.	.
2C	4c	1g	2e
.	4B	.	.
2C	4c	.	2g
.	4d	.	.
=225	=225	=225	=225
2c	2e	2r	2a
2B	1d	2d	2b
2A	.	2.e	4cc
.	.	.	4b
2A	[2c	.	4cc
.	.	4f	4dd
=226	=226	=226	=226
1G	2c]	1.g	2ee
.	2B	.	2.dd
1A	1c	.	.
.	.	.	4cc
.	.	2f#	[2cc
=227	=227	=227	=227
2.G	1d	1.g	2cc]
.	.	.	2b
4F	.	.	.
2E	[1c	.	2cc
[2F	.	4c	2a
.	.	8d	.
.	.	8e	.
=228	=228	=228	=228
2F]	1c_	1f	2a
4E	.	.	4g
4D	.	.	4f
[1C	1c_	[1e	[1g
=229	=229	=229	=229
1C]	1c]	1e]	1g]
==	==	==	==
*-	*-	*-	*-
!!!CDT: 1525/^1526/-1594/2/2
!!!OCY: Italia
!!!AGN: Mass (Parody)
!!!AST: renaissance, vocal
!!!ASW: Motet 1532 (Richafort)
!!!PWK: Masses, Book 8
!!!RNB: Cadence finals: G
!!!YOR: Le Opere Complete, v. 24, p. 1
!!!YOO: Rome, Italy: Fratelli Scalera
!!!END: 1992//
!!!EED: John Miller
!!!YEC: Copyright 2000, John Miller
!!!YEN: United States of America
!!!YEM: Rights to all derivative electronic formats reserved.
!!!YEM: Refer to licensing agreement for further details.
!!!YEM: This file must be accompanied by the licensing agreement.
!!!YEM: A copy of the licensing agreement may be found at http://www.music-cog.ohio-state.edu/HumdrumDatabases/Palestrina/license.txt
!!!EMD: converted to Humdrum by Bret Aarden
